X:1
T:Zakynthos Jig
R:jig 48
M:6/8
L:1/8
R:Jig
C: roger wilson
D:Eliza Carthy
K:Amin
a2a gag|e2a a2g|ecc BcB|AFF F3|EAB cBA|FAB cBA|B2B edB|Bcd cBA:||
|:EAB cBA|FAB cBA|B2B edB|1Bcd cBA:|2c2B2A2||
|:d2d3c|dc2 B2A|d2d2cd|1B3A3:|2e3e3||
